public_html/images/diagonal-rainbow.svg

<svg fill="none" height="300" viewBox="0 0 300 300" width="300" xmlns="http://www.w3.org/2000/svg" xmlns:xlink="http://www.w3.org/1999/xlink"><clipPath id="a"><path d="m0 0h300v300h-300z"/></clipPath><g clip-path="url(#a)"><path d="m0 300v-300h600l-300 300z" fill="#0d87ca"/><path d="m-100 300v-300h600l-300 300z" fill="#9d3489"/><path d="m-200 300v-300h600l-300 300z" fill="#e51f2e"/><path d="m-300 300v-300h600l-300 300z" fill="#ef7b00"/><path d="m-400 300v-300h600l-300 300z" fill="#fcc200"/><path d="m-500 300v-300h600l-300 300z" fill="#449934"/></g></svg>

<svg width="300" height="300" viewBox="0 0 300 300" fill="none" xmlns="http://www.w3.org/2000/svg"><g clip-path="url(#clip0)"><path d="M0 300L0 0H600L300 300H0Z" fill="#0D87CA"/><path d="M-100 300V0H500L200 300H-100Z" fill="#9D3489"/><path d="M-200 300L-200 0H400L100 300H-200Z" fill="#E51F2E"/><path d="M-300 300L-300 0H300L0 300H-300Z" fill="#EF7B00"/><path d="M-400 300L-400 0H200L-100 300H-400Z" fill="#FCC200"/><path d="M-500 300L-500 0H100L-200 300H-500Z" fill="#449934"/></g><defs><clipPath id="clip0"><rect width="300" height="300" fill="#fff"/></clipPath></defs></svg>
